packages/foundations/assets/icons/functional/images/notification/exclamation_mark_circle.svg

<svg xmlns="http://www.w3.org/2000/svg" width="32" height="32" fill="none"><path fill="#1A1C1F" fill-rule="evenodd" d="M14.72 2.06c-1.337.16-2.192.345-3.214.694a14.01 14.01 0 0 0-9.108 9.958 13.97 13.97 0 0 0 2.111 11.263c1.513 2.162 3.665 3.918 6.004 4.898 1.813.759 3.549 1.111 5.487 1.111 2.014 0 3.907-.403 5.746-1.224 3.133-1.398 5.81-4.13 7.127-7.273.76-1.814 1.111-3.55 1.11-5.487-.001-2.779-.782-5.401-2.282-7.665a14.06 14.06 0 0 0-9.621-6.178c-.537-.084-2.898-.153-3.36-.097m3.04 2.074c3.883.583 7.274 3.057 8.983 6.553.876 1.792 1.226 3.309 1.226 5.313 0 .777-.027 1.271-.094 1.707-.534 3.477-2.441 6.452-5.368 8.372-1.079.708-2.675 1.372-3.963 1.65-5.37 1.157-10.888-1.508-13.287-6.416a11.8 11.8 0 0 1-1.133-3.606c-.128-.844-.128-2.57 0-3.414.603-3.954 3.045-7.317 6.563-9.036 1.438-.703 2.776-1.075 4.406-1.224.474-.044 2.118.019 2.667.101m-2.217 4.987a.95.95 0 0 0-.494.58c-.086.249-.089 8.042-.003 8.352.131.475.698.786 1.2.66.314-.079.628-.372.708-.66.04-.147.058-1.451.057-4.213-.002-4.225-.004-4.248-.246-4.516-.278-.308-.827-.399-1.222-.203m.19 11.568a1.49 1.49 0 0 0-.942.717c-.118.226-.15.685-.068.978.106.379.517.78.919.896 1.226.353 2.191-1.098 1.411-2.121-.263-.345-.871-.561-1.32-.47"/></svg>

<svg width="32" height="32" viewBox="0 0 32 32" fill="none" xmlns="http://www.w3.org/2000/svg"><path d="M14.720 2.060 C 13.383 2.220,12.528 2.405,11.506 2.754 C 6.954 4.310,3.537 8.045,2.398 12.712 C 1.455 16.573,2.232 20.722,4.509 23.975 C 6.022 26.137,8.174 27.893,10.513 28.873 C 12.326 29.632,14.062 29.984,16.000 29.984 C 18.014 29.984,19.907 29.581,21.746 28.760 C 24.879 27.362,27.556 24.630,28.873 21.487 C 29.633 19.673,29.984 17.937,29.983 16.000 C 29.982 13.221,29.201 10.599,27.701 8.335 C 25.479 4.983,22.049 2.781,18.080 2.157 C 17.543 2.073,15.182 2.004,14.720 2.060 M17.760 4.134 C 21.643 4.717,25.034 7.191,26.743 10.687 C 27.619 12.479,27.969 13.996,27.969 16.000 C 27.969 16.777,27.942 17.271,27.875 17.707 C 27.341 21.184,25.434 24.159,22.507 26.079 C 21.428 26.787,19.832 27.451,18.544 27.729 C 13.174 28.886,7.656 26.221,5.257 21.313 C 4.662 20.096,4.325 19.021,4.124 17.707 C 3.996 16.863,3.996 15.137,4.124 14.293 C 4.727 10.339,7.169 6.976,10.687 5.257 C 12.125 4.554,13.463 4.182,15.093 4.033 C 15.567 3.989,17.211 4.052,17.760 4.134 M15.543 9.121 C 15.302 9.240,15.144 9.426,15.049 9.701 C 14.963 9.950,14.960 17.743,15.046 18.053 C 15.177 18.528,15.744 18.839,16.246 18.713 C 16.560 18.634,16.874 18.341,16.954 18.053 C 16.994 17.906,17.012 16.602,17.011 13.840 C 17.009 9.615,17.007 9.592,16.765 9.324 C 16.487 9.016,15.938 8.925,15.543 9.121 M15.733 20.689 C 15.362 20.765,14.970 21.064,14.791 21.406 C 14.673 21.632,14.641 22.091,14.723 22.384 C 14.829 22.763,15.240 23.164,15.642 23.280 C 16.868 23.633,17.833 22.182,17.053 21.159 C 16.790 20.814,16.182 20.598,15.733 20.689 " fill="#1A1C1F" stroke="none" fill-rule="evenodd"></path></svg>
